X: 14810
T: Garageschottis
R: hornpipe
M: 4/4
K: Gmixolydian
|:G2 GF DD FA|c2 cB GG Bd|cA BG AF DF|G2 GF E2 C2|D2 DC B,<G, G,2|
G2 GF DD FA|c2 cB GG Bd|cA BG AF DF|1 G2 GF G4:|2 G2 GF GA B/c/d||
|:g3g g^f ga|bg g^f d3g|g^f ga bg gf|d3d dc Bd|
g2 f2 d2 c2|Bd cA B2 G2-|GA Bc dc AF|1 G2 GF GA B/c/d:|2 G2 G2- GD FD||

